**kern	**silbe	**kern	**silbe	**kern	**silbe	**harmony	**chordsym	**phrase	**timestamp	**leadinstrument
*ICvox	*	*ICvox	*	*ICvox	*	*M4/4	*M4/4	*	*	*
*	*	*	*	*	*	*A:	*A:	*	*	*
=1	=1	=1	=1	=1	=1	=1	=1	=1	=1	=1
*A:	*	*A:	*	*A:	*	*	*	*	*	*
*M4/4	*	*M4/4	*	*M4/4	*	*	*	*	*	*
*clefF4	*	*clefC3	*	*clefG2	*	*	*	*	*	*
1r	.	1r	.	1r	.	1r;	r	.	0	r
=2	=2	=2	=2	=2	=2	=2	=2	=2	=2	=2
*	*	*	*	*	*	*>A_intro	*>A_intro	*>A_intro	*>A_intro	*>A_intro
1r	.	1r	.	1r	.	1AM	A:maj (E A C#)	newline	0.418	woodwinds
=3	=3	=3	=3	=3	=3	=3	=3	=3	=3	=3
1r	.	1r	.	1r	.	2C#mm	C#:min7 (E C# G# B)	.	.	woodwinds
.	.	.	.	.	.	2Cd	C:dim (C E- G-)	.	.	woodwinds
=4	=4	=4	=4	=4	=4	=4	=4	=4	=4	=4
1r	.	1r	.	1r	.	2AM	A:maj(9) (E A C# B)	newline	6.069	woodwinds
.	.	.	.	.	.	2AM	A:maj (E A C#)	.	.	woodwinds
=5	=5	=5	=5	=5	=5	=5	=5	=5	=5	=5
*	*	*	*	*	*	*M3/4	*M3/4	*M3/4	*M3/4	*M3/4
1C#	I'm	1r	.	1r	.	4Bmm	B:min7 (E B D F# A)	.	.	woodwinds
.	.	.	.	.	.	4Cd	C:dim (C E- G-)	.	.	woodwinds
.	.	.	.	.	.	4C#mm	C#:min7 (E C# G# B)	.	.	woodwinds
=5	=5	=5	=5	=5	=5	=5	=5	=5	=5	=5
*	*	*	*	*	*	*>B_theme	*>B_theme	*>B_theme	*>B_theme	*>B_theme
*	*	*	*	*	*	*M4/4	*M4/4	*M4/4	*M4/4	*M4/4
.	.	.	.	.	.	1AM	A:maj (A C# E)	newline	10.646	voice
=6	=6	=6	=6	=6	=6	=6	=6	=6	=6	=6
12D	drea-	1r	.	1r	.	.	.	.	.	.
12F#	_	.	.	.	.	.	.	.	.	.
12D	_	.	.	.	.	.	.	.	.	.
4C#	-ming	.	.	.	.	.	.	.	.	.
4r	.	.	.	.	.	.	.	.	.	.
=6	=6	=6	=6	=6	=6	=6	=6	=6	=6	=6
16C	of	.	.	.	.	4DM	D:maj (A D F#)	.	.	voice
16C#	a	.	.	.	.	.	.	.	.	.
[8D	white	.	.	.	.	.	.	.	.	.
=7	=7	=7	=7	=7	=7	=7	=7	=7	=7	=7
1D]	_	1r	.	1r	.	4AM	A:maj (A C# E)	.	.	voice
.	.	.	.	.	.	4G#M	G#:maj (A G# B# D#)	.	.	voice
.	.	.	.	.	.	4AM	A:maj (A C# E)	.	.	voice
=7	=7	=7	=7	=7	=7	=7	=7	=7	=7	=7
.	.	.	.	.	.	1Bm	B:min (B D F#)	.	.	voice
=8	=8	=8	=8	=8	=8	=8	=8	=8	=8	=8
8D#	Christ-	1r	.	1r	.	.	.	.	.	.
[8E	-mas	.	.	.	.	.	.	.	.	.
2E]	_	.	.	.	.	.	.	.	.	.
=8	=8	=8	=8	=8	=8	=8	=8	=8	=8	=8
4r	.	.	.	.	.	2D#d	D#:dim (E D# F# A)	.	.	voice
=9	=9	=9	=9	=9	=9	=9	=9	=9	=9	=9
4r	.	1r	.	1r	.	.	.	.	.	.
16r	.	.	.	.	.	2EMm	E:7 (E G# B D)	.	.	voice
8F#	Just	.	.	.	.	.	.	.	.	.
[16G#	like	.	.	.	.	.	.	.	.	.
4G#]	_	.	.	.	.	.	.	.	.	.
=9	=9	=9	=9	=9	=9	=9	=9	=9	=9	=9
8A	the	.	.	.	.	1Bmm	B:min7 (B D F# A)	newline	20.576	voice
[8B	ones	.	.	.	.	.	.	.	.	.
=10	=10	=10	=10	=10	=10	=10	=10	=10	=10	=10
2B_	_	1r	.	1r	.	.	.	.	.	.
8B]	_	.	.	.	.	.	.	.	.	.
8A	I	.	.	.	.	.	.	.	.	.
=10	=10	=10	=10	=10	=10	=10	=10	=10	=10	=10
[4G#	used	.	.	.	.	2Bmm	B:min7 (D B F# A)	.	.	voice
=11	=11	=11	=11	=11	=11	=11	=11	=11	=11	=11
8G#]	_	1r	.	1r	.	.	.	.	.	.
8F#	to	.	.	.	.	.	.	.	.	.
2.E	know.	.	.	.	.	2EMm	E:7 (E G# B D)	.	.	voice
=11	=11	=11	=11	=11	=11	=11	=11	=11	=11	=11
.	.	.	.	.	.	2AM	A:maj (A C# E)	.	.	voice
=12	=12	=12	=12	=12	=12	=12	=12	=12	=12	=12
2r	.	1r	.	1r	.	.	.	.	.	.
.	.	.	.	.	.	2EMm	E:7 (E G# B D)	.	.	voice
4r	.	.	.	.	.	.	.	.	.	.
=12	=12	=12	=12	=12	=12	=12	=12	=12	=12	=12
8AA	Where	.	.	.	.	4G#M	G#:maj (A G# B# D#)	.	.	voice
16BB	the	.	.	.	.	.	.	.	.	.
[16C#	tree	.	.	.	.	.	.	.	.	.
=13	=13	=13	=13	=13	=13	=13	=13	=13	=13	=13
2C#]	_	1r	.	1r	.	4AM	A:maj (A C# E)	.	.	voice
.	.	.	.	.	.	4Bmm	B:min7 (B D F# A)	.	.	voice
4C	tops	.	.	.	.	4EMm	E:7 (E G# B D)	.	.	voice
=13	=13	=13	=13	=13	=13	=13	=13	=13	=13	=13
4r	.	.	.	.	.	1AM	A:maj (A C# E)	newline	30.232	voice
=14	=14	=14	=14	=14	=14	=14	=14	=14	=14	=14
12C#	glis-	1r	.	1r	.	.	.	.	.	.
[6F#	-ten,	.	.	.	.	.	.	.	.	.
2F#]	_	.	.	.	.	.	.	.	.	.
=14	=14	=14	=14	=14	=14	=14	=14	=14	=14	=14
4r	.	.	.	.	.	2AMm	A:9 (A C# G B)	.	.	voice
=15	=15	=15	=15	=15	=15	=15	=15	=15	=15	=15
8r	.	1r	.	1r	.	.	.	.	.	.
[8E	and	.	.	.	.	.	.	.	.	.
8E]	_	.	.	.	.	2AMm	A:7(b9) (A C# E G B-)	.	.	voice
[8AA	chil-	.	.	.	.	.	.	.	.	.
8AA]	_	.	.	.	.	.	.	.	.	.
4.AA	-dren	.	.	.	.	.	.	.	.	.
=15	=15	=15	=15	=15	=15	=15	=15	=15	=15	=15
.	.	.	.	.	.	1DMM	D:maj7 (D F# A C#)	.	.	voice
=16	=16	=16	=16	=16	=16	=16	=16	=16	=16	=16
12AA	lis-	1r	.	1r	.	.	.	.	.	.
[6E	-ten,	.	.	.	.	.	.	.	.	.
2E]	_	.	.	.	.	.	.	.	.	.
=16	=16	=16	=16	=16	=16	=16	=16	=16	=16	=16
8r	.	.	.	.	.	1DMM	D:maj6(7) (D F# A B C#)	.	.	voice
8D	to	.	.	.	.	.	.	.	.	.
=17	=17	=17	=17	=17	=17	=17	=17	=17	=17	=17
1C#	hear	1r	.	1r	.	.	.	.	.	.
=17	=17	=17	=17	=17	=17	=17	=17	=17	=17	=17
.	.	.	.	.	.	1F#m	F#:min (F# A C#)	newline	40.561	voice
=18	=18	=18	=18	=18	=18	=18	=18	=18	=18	=18
12D	sleigh	1r	.	1r	.	.	.	.	.	.
12F#	_	.	.	.	.	.	.	.	.	.
12D	_	.	.	.	.	.	.	.	.	.
2C#	bells	.	.	.	.	.	.	.	.	.
=18	=18	=18	=18	=18	=18	=18	=18	=18	=18	=18
12BB	in	.	.	.	.	2F#mm	F#:min7 (F# A C# E)	.	.	voice
6AA	the	.	.	.	.	.	.	.	.	.
=19	=19	=19	=19	=19	=19	=19	=19	=19	=19	=19
1BB	snow.	1r	.	1r	.	.	.	.	.	.
.	.	.	.	.	.	2BMm	B:7 (B D# F# A)	.	.	voice
=19	=19	=19	=19	=19	=19	=19	=19	=19	=19	=19
.	.	.	.	.	.	1EM	E:sus4(b7) (E A B D)	.	.	voice
=20	=20	=20	=20	=20	=20	=20	=20	=20	=20	=20
2r	.	1r	.	1r	.	.	.	.	.	.
4r	.	.	.	.	.	.	.	.	.	.
=20	=20	=20	=20	=20	=20	=20	=20	=20	=20	=20
8r	.	.	.	.	.	1EMm	E:7 (E G# B D)	.	.	voice
16r	.	.	.	.	.	.	.	.	.	.
[16C#	I'm	.	.	.	.	.	.	.	.	.
=21	=21	=21	=21	=21	=21	=21	=21	=21	=21	=21
1C#]	_	1r	.	1r	.	.	.	.	.	.
=21	=21	=21	=21	=21	=21	=21	=21	=21	=21	=21
*	*	*	*	*	*	*>B2_theme	*>B2_theme	*>B2_theme	*>B2_theme	*>B2_theme
.	.	.	.	.	.	1AMm	A:7 (A C# E G)	newline	50.524	voice
=22	=22	=22	=22	=22	=22	=22	=22	=22	=22	=22
12D	drea-	1r	.	1r	.	.	.	.	.	.
12E	_	.	.	.	.	.	.	.	.	.
12D	_	.	.	.	.	.	.	.	.	.
4C#	-ming	.	.	.	.	.	.	.	.	.
4r	.	.	.	.	.	.	.	.	.	.
=22	=22	=22	=22	=22	=22	=22	=22	=22	=22	=22
12r	.	.	.	.	.	4DM	D:maj (A D F#)	.	.	voice
12FF#	of	.	.	.	.	.	.	.	.	.
12BB	a	.	.	.	.	.	.	.	.	.
=23	=23	=23	=23	=23	=23	=23	=23	=23	=23	=23
1D	white	1r	.	1r	.	4AM	A:maj (A C# E)	.	.	voice
.	.	.	.	.	.	4G#M	G#:maj (A G# B# D#)	.	.	voice
.	.	.	.	.	.	4AM	A:maj (A C# E)	.	.	voice
=23	=23	=23	=23	=23	=23	=23	=23	=23	=23	=23
.	.	.	.	.	.	1Bm	B:min (B D F#)	.	.	voice
=24	=24	=24	=24	=24	=24	=24	=24	=24	=24	=24
8D#	Christ-	1r	.	1r	.	.	.	.	.	.
[8E	-mas	.	.	.	.	.	.	.	.	.
2.E]	_	.	.	.	.	.	.	.	.	.
=24	=24	=24	=24	=24	=24	=24	=24	=24	=24	=24
.	.	.	.	.	.	2D#d	D#:dim (E D# F# A)	.	.	voice
=25	=25	=25	=25	=25	=25	=25	=25	=25	=25	=25
4r	.	1r	.	1r	.	.	.	.	.	.
8r	.	.	.	.	.	2EMm	E:7 (E G# B D)	.	.	voice
8F#	with	.	.	.	.	.	.	.	.	.
8G#	ev-	.	.	.	.	.	.	.	.	.
[8A	-'ry	.	.	.	.	.	.	.	.	.
=25	=25	=25	=25	=25	=25	=25	=25	=25	=25	=25
4A]	_	.	.	.	.	1Bmm	B:min7 (B D F# A)	newline	60.438	voice
=26	=26	=26	=26	=26	=26	=26	=26	=26	=26	=26
4B	Christ-	1r	.	1r	.	.	.	.	.	.
4A	-mas	.	.	.	.	.	.	.	.	.
2G#	card	.	.	.	.	.	.	.	.	.
=26	=26	=26	=26	=26	=26	=26	=26	=26	=26	=26
.	.	.	.	.	.	2Bmm	B:min7 (D B F# A)	.	.	voice
=27	=27	=27	=27	=27	=27	=27	=27	=27	=27	=27
8FF#	I	1r	.	1r	.	.	.	.	.	.
[8E	write	.	.	.	.	.	.	.	.	.
2.E]	_	.	.	.	.	2EMm	E:7 (E G# B D)	.	.	voice
=27	=27	=27	=27	=27	=27	=27	=27	=27	=27	=27
.	.	.	.	.	.	2AM	A:maj (A C# E)	.	.	voice
=28	=28	=28	=28	=28	=28	=28	=28	=28	=28	=28
2r	.	1r	.	1r	.	.	.	.	.	.
.	.	.	.	.	.	2G#M	G#:maj (A G# B# D#)	.	.	voice
4AA	May	.	.	.	.	.	.	.	.	.
=28	=28	=28	=28	=28	=28	=28	=28	=28	=28	=28
8BB	your	.	.	.	.	2AM	A:maj (A C# E)	.	.	voice
[8C#	days	.	.	.	.	.	.	.	.	.
=29	=29	=29	=29	=29	=29	=29	=29	=29	=29	=29
2C#]	_	1r	.	1r	.	.	.	.	.	.
.	.	.	.	.	.	4Bmm	B:min7 (B D F# A)	.	.	voice
4r	.	.	.	.	.	4EMm	E:7 (E G# B D)	.	.	voice
=29	=29	=29	=29	=29	=29	=29	=29	=29	=29	=29
8r	.	.	.	.	.	1AM	A:maj (A C# E)	newline	70.435	voice
8FF#	be	.	.	.	.	.	.	.	.	.
=30	=30	=30	=30	=30	=30	=30	=30	=30	=30	=30
8C#	mer-	1r	.	1r	.	.	.	.	.	.
[8F#	-ry	.	.	.	.	.	.	.	.	.
2F#]	_	.	.	.	.	.	.	.	.	.
=30	=30	=30	=30	=30	=30	=30	=30	=30	=30	=30
4E	and	.	.	.	.	2AMm	A:9 (A C# G B)	.	.	voice
=31	=31	=31	=31	=31	=31	=31	=31	=31	=31	=31
[1A	bright,	1r	.	1r	.	.	.	.	.	.
.	.	.	.	.	.	2AMm	A:7(b9) (A C# E G B-)	.	.	voice
=31	=31	=31	=31	=31	=31	=31	=31	=31	=31	=31
.	.	.	.	.	.	1DMM	D:maj7 (D F# A C#)	.	.	voice
=32	=32	=32	=32	=32	=32	=32	=32	=32	=32	=32
4A]	_	1r	.	1r	.	.	.	.	.	.
4r	.	.	.	.	.	.	.	.	.	.
4.AA	and	.	.	.	.	.	.	.	.	.
=32	=32	=32	=32	=32	=32	=32	=32	=32	=32	=32
.	.	.	.	.	.	1Dm	D:min (D F A)	.	.	voice
8BB	may	.	.	.	.	.	.	.	.	.
=33	=33	=33	=33	=33	=33	=33	=33	=33	=33	=33
2.C#	all	1r	.	1r	.	.	.	.	.	.
=33	=33	=33	=33	=33	=33	=33	=33	=33	=33	=33
4C#	your	.	.	.	.	2AM	A:maj (A C# E)	newline	80.684	voice
=34	=34	=34	=34	=34	=34	=34	=34	=34	=34	=34
4.F#	Christ-	1r	.	1r	.	.	.	.	.	.
.	.	.	.	.	.	2AMm	A:7 (A C# E G)	.	.	voice
8GG#	-ma-	.	.	.	.	.	.	.	.	.
4.GG#	-ses	.	.	.	.	.	.	.	.	.
=34	=34	=34	=34	=34	=34	=34	=34	=34	=34	=34
.	.	.	.	.	.	2DM	D:maj (D F# A)	.	.	voice
8GG#	be	.	.	.	.	.	.	.	.	.
=35	=35	=35	=35	=35	=35	=35	=35	=35	=35	=35
1AA	white.	1r	.	1r	.	.	.	.	.	.
.	.	.	.	.	.	2EMm	E:7(b9) (E G# B D F)	.	.	voice
=35	=35	=35	=35	=35	=35	=35	=35	=35	=35	=35
.	.	.	.	.	.	2AM	A:maj (A C# E)	.	.	voice
=36	=36	=36	=36	=36	=36	=36	=36	=36	=36	=36
1r	.	1r	.	1r	.	.	.	.	.	.
.	.	.	.	.	.	2C#mm	C#:min7 (C# E G# B)	.	.	voice
=36	=36	=36	=36	=36	=36	=36	=36	=36	=36	=36
.	.	.	.	.	.	1F#mm	F#:min7 (F# A C# E)	.	.	voice
=37	=37	=37	=37	=37	=37	=37	=37	=37	=37	=37
*	*	*clefF4	*	*	*	*	*	*	*	*
1r	.	1AA E c#	I'm	1e a cc#	_	.	.	.	.	.
=37	=37	=37	=37	=37	=37	=37	=37	=37	=37	=37
.	.	.	.	.	.	2EMm	E:7 (B E G# D)	.	.	voice
=38	=38	=38	=38	=38	=38	=38	=38	=38	=38	=38
1r	.	4AA F# d	drea-	4f# a dd	_	.	.	.	.	.
.	.	4AA E c#	-ming	4e a cc#	_	2B-M	B-:maj (B- D F)	.	.	voice
.	.	4AA D# c	of	4d# a cc	_	.	.	.	.	.
=38	=38	=38	=38	=38	=38	=38	=38	=38	=38	=38
*	*	*	*	*	*	*>B3_theme	*>B3_theme	*>B3_theme	*>B3_theme	*>B3_theme
.	.	4AA E c#	a	4e a cc#	_	1AM	A:maj (A C# E)	newline	90.747	choir
=39	=39	=39	=39	=39	=39	=39	=39	=39	=39	=39
1r	.	1BB F# A d	white	1f# a dd	_	.	.	.	.	.
=39	=39	=39	=39	=39	=39	=39	=39	=39	=39	=39
.	.	.	.	.	.	4DM	D:maj (A D F#)	.	.	choir
=40	=40	=40	=40	=40	=40	=40	=40	=40	=40	=40
1r	.	4EE F## c# d#	Christ-	4g a# dd#	_	4AM	A:maj (A C# E)	.	.	choir
.	.	4EE G# d e	-mas,	4g# b ee	_	4G#M	G#:maj (A G# B# D#)	.	.	choir
.	.	2r	.	2r	.	4AM	A:maj (A C# E)	.	.	choir
=40	=40	=40	=40	=40	=40	=40	=40	=40	=40	=40
.	.	.	.	.	.	1Bmm	B:min7 (B D F# A)	.	.	choir
=41	=41	=41	=41	=41	=41	=41	=41	=41	=41	=41
1r	.	4r	.	1r	.	.	.	.	.	.
.	.	4F#	just	.	.	.	.	.	.	.
.	.	4G#	like	.	.	.	.	.	.	.
=41	=41	=41	=41	=41	=41	=41	=41	=41	=41	=41
.	.	8A	the	.	.	2D#d	D#:dim (E D# F# A)	.	.	choir
.	.	[8B	ones	.	.	.	.	.	.	.
=42	=42	=42	=42	=42	=42	=42	=42	=42	=42	=42
1r	.	4B]	_	1r	.	.	.	.	.	.
.	.	4A	I	.	.	2EMm	E:7 (E G# B D)	.	.	choir
.	.	4.G#	used	.	.	.	.	.	.	.
=42	=42	=42	=42	=42	=42	=42	=42	=42	=42	=42
.	.	.	.	.	.	1Bmm	B:min7 (B D F# A)	newline	100.675	choir
.	.	8F#	to	.	.	.	.	.	.	.
=43	=43	=43	=43	=43	=43	=43	=43	=43	=43	=43
1r	.	1E	know.	1r	.	.	.	.	.	.
=43	=43	=43	=43	=43	=43	=43	=43	=43	=43	=43
.	.	.	.	.	.	2DM	D:maj (D F# A)	.	.	choir
=44	=44	=44	=44	=44	=44	=44	=44	=44	=44	=44
1r	.	2r	.	1r	.	.	.	.	.	.
.	.	.	.	.	.	2EMm	E:7 (E G# B D)	.	.	choir
.	.	4A	Where	.	.	.	.	.	.	.
=44	=44	=44	=44	=44	=44	=44	=44	=44	=44	=44
.	.	4B	the	.	.	1AM	A:maj (A C# E)	.	.	choir
=45	=45	=45	=45	=45	=45	=45	=45	=45	=45	=45
1r	.	2AA E A c#	tree-	1r	.	.	.	.	.	.
.	.	2AA E G# B c#	-tops	.	.	.	.	.	.	.
=45	=45	=45	=45	=45	=45	=45	=45	=45	=45	=45
.	.	.	.	.	.	4G#M	G#:maj (A G# B# D#)	.	.	choir
=46	=46	=46	=46	=46	=46	=46	=46	=46	=46	=46
1r	.	4AA E G c#	glis-	2r	.	2.AM	A:maj (A C# E)	.	.	choir
.	.	2AA E G	-ten,	.	.	.	.	.	.	.
.	.	.	.	4r	.	.	.	.	.	.
=46	=46	=46	=46	=46	=46	=46	=46	=46	=46	=46
.	.	4E	and	4e	_	2AM	A:maj (A C# E)	newline	110.579	choir
=47	=47	=47	=47	=47	=47	=47	=47	=47	=47	=47
1r	.	2AA D F# A	chil-	2d f# a	_	.	.	.	.	.
.	.	.	.	.	.	2AMm	A:7 (A C# E G)	.	.	choir
.	.	2AA D F# A	-dren	2d f# a	_	.	.	.	.	.
=47	=47	=47	=47	=47	=47	=47	=47	=47	=47	=47
.	.	.	.	.	.	1AMm	A:7 (A C# E G)	.	.	choir
=48	=48	=48	=48	=48	=48	=48	=48	=48	=48	=48
1r	.	4AA F A B	lis-	4d f a	_	.	.	.	.	.
.	.	4AA F A B	-ten,	4f b ee	_	.	.	.	.	.
.	.	4r	.	2r	.	.	.	.	.	.
=48	=48	=48	=48	=48	=48	=48	=48	=48	=48	=48
.	.	4AA F d	to	.	.	1DM	D:maj (D F# A)	.	.	choir
=49	=49	=49	=49	=49	=49	=49	=49	=49	=49	=49
1r	.	1AA E c#	hear...	4r	.	.	.	.	.	.
.	.	.	.	4e	To	.	.	.	.	.
.	.	.	.	4a	hear	.	.	.	.	.
=49	=49	=49	=49	=49	=49	=49	=49	=49	=49	=49
.	.	.	.	4cc#	those	1DMM	D:maj6(7) (D F# A B C#)	.	.	choir
=50	=50	=50	=50	=50	=50	=50	=50	=50	=50	=50
1r	.	1r	.	4f# b dd	sleigh	.	.	.	.	.
.	.	.	.	4e a cc#	bells	.	.	.	.	.
.	.	.	.	4d# g# b	in	.	.	.	.	.
=50	=50	=50	=50	=50	=50	=50	=50	=50	=50	=50
.	.	.	.	4d# f# a	the	1AM	A:maj (A C# E)	newline	120.635	choir
=51	=51	=51	=51	=51	=51	=51	=51	=51	=51	=51
1r	.	1r	.	[1d [g# [b	snow	.	.	.	.	.
=51	=51	=51	=51	=51	=51	=51	=51	=51	=51	=51
.	.	.	.	.	.	4AM	A:sus4 (A D E)	.	.	choir
=52	=52	=52	=52	=52	=52	=52	=52	=52	=52	=52
1r	.	1r	.	2.d] g#] b]	_	4AM	A:maj (A C# E)	.	.	choir
.	.	.	.	.	.	2BMm	B:7 (B D# F# A)	.	.	choir
=52	=52	=52	=52	=52	=52	=52	=52	=52	=52	=52
.	.	.	.	4r	.	1EMm	E:7 (E G# B D)	.	.	choir
=53	=53	=53	=53	=53	=53	=53	=53	=53	=53	=53
1r	.	1r	.	1c#	I'm	.	.	.	.	.
=53	=53	=53	=53	=53	=53	=53	=53	=53	=53	=53
.	.	.	.	.	.	1EMm	E:7 (E G# B D)	.	.	choir
=54	=54	=54	=54	=54	=54	=54	=54	=54	=54	=54
1r	.	1r	.	4d	drea-	.	.	.	.	.
.	.	.	.	4c#	-ming	.	.	.	.	.
.	.	.	.	4c	of	.	.	.	.	.
=54	=54	=54	=54	=54	=54	=54	=54	=54	=54	=54
*	*	*	*	*	*	*>B4_theme	*>B4_theme	*>B4_theme	*>B4_theme	*>B4_theme
.	.	.	.	4c#	a	1AM	A:maj (A C# E)	newline	130.443	choir
=55	=55	=55	=55	=55	=55	=55	=55	=55	=55	=55
1r	.	1r	.	1d	white	.	.	.	.	.
=55	=55	=55	=55	=55	=55	=55	=55	=55	=55	=55
.	.	.	.	.	.	4DM	D:maj (A D F#)	.	.	choir
=56	=56	=56	=56	=56	=56	=56	=56	=56	=56	=56
1r	.	1r	.	4d#	Christ-	4AM	A:maj (A C# E)	.	.	choir
.	.	.	.	4e	-mas,	4G#M	G#:maj (A G# B# D#)	.	.	choir
.	.	.	.	2r	.	4AM	A:maj (A C# E)	.	.	choir
=56	=56	=56	=56	=56	=56	=56	=56	=56	=56	=56
.	.	.	.	.	.	1Bmm	B:min7 (B D F# A)	.	.	choir
=57	=57	=57	=57	=57	=57	=57	=57	=57	=57	=57
1r	.	1r	.	4r	.	.	.	.	.	.
.	.	.	.	4d f#	with	.	.	.	.	.
.	.	.	.	4e g#	ev-	.	.	.	.	.
=57	=57	=57	=57	=57	=57	=57	=57	=57	=57	=57
.	.	.	.	4f# a	-'ry	2D#d	D#:dim (E D# F# A)	.	.	choir
=58	=58	=58	=58	=58	=58	=58	=58	=58	=58	=58
1r	.	1r	.	4g# b	Christ-	.	.	.	.	.
.	.	.	.	4f# a	-mas	2EMm	E:7 (E G# B D)	.	.	choir
.	.	.	.	4e g#	card	.	.	.	.	.
=58	=58	=58	=58	=58	=58	=58	=58	=58	=58	=58
.	.	.	.	4d f#	I	1Bmm	B:min7 (B D F# A)	newline	140.245	choir
=59	=59	=59	=59	=59	=59	=59	=59	=59	=59	=59
1r	.	1r	.	1c# e	write.	.	.	.	.	.
=59	=59	=59	=59	=59	=59	=59	=59	=59	=59	=59
.	.	.	.	.	.	2DM	D:maj (D F# A)	.	.	choir
=60	=60	=60	=60	=60	=60	=60	=60	=60	=60	=60
2r	.	1r	.	2r	.	.	.	.	.	.
.	.	.	.	.	.	2EMm	E:7 (E G# B D)	.	.	choir
4C#	May	.	.	4A	May	.	.	.	.	.
=60	=60	=60	=60	=60	=60	=60	=60	=60	=60	=60
8D	your	.	.	4B	your	1AM	A:maj (A C# E)	.	.	choir
[8E	days	.	.	.	.	.	.	.	.	.
=61	=61	=61	=61	=61	=61	=61	=61	=61	=61	=61
2E]	_	1r	.	2c#	days	.	.	.	.	.
4r	.	.	.	4r	.	.	.	.	.	.
=61	=61	=61	=61	=61	=61	=61	=61	=61	=61	=61
8A	be	.	.	4c#	be	4G#M	G#:maj (A G# B# D#)	.	.	choir
8G#	_	.	.	.	.	.	.	.	.	.
=62	=62	=62	=62	=62	=62	=62	=62	=62	=62	=62
4G	mer-	1r	.	4c#	mer-	2.AM	A:maj (A C# E)	.	.	choir
4A	-ry,	.	.	4f#	-ry	.	.	.	.	.
4r	.	.	.	4r	.	.	.	.	.	.
=62	=62	=62	=62	=62	=62	=62	=62	=62	=62	=62
12r	.	.	.	4e	and	2AM	A:maj (A C# E)	newline	150.001	voice, choir
[12G	and	.	.	.	.	.	.	.	.	.
12G]	_	.	.	.	.	.	.	.	.	.
=63	=63	=63	=63	=63	=63	=63	=63	=63	=63	=63
[2F#	bright,	1r	.	[1a	bright	.	.	.	.	.
.	.	.	.	.	.	2AMm	A:7 (A C# E G)	.	.	voice, choir
8F#]	_	.	.	.	.	.	.	.	.	.
8A	_	.	.	.	.	.	.	.	.	.
=63	=63	=63	=63	=63	=63	=63	=63	=63	=63	=63
8F#	_	.	.	.	.	1AMm	A:7 (A C# E G)	.	.	voice, choir
[8F	_	.	.	.	.	.	.	.	.	.
=64	=64	=64	=64	=64	=64	=64	=64	=64	=64	=64
4F]	_	1r	.	4a]	...	.	.	.	.	.
4r	.	.	.	4r	.	.	.	.	.	.
4.AA	and	.	.	2r	.	.	.	.	.	.
=64	=64	=64	=64	=64	=64	=64	=64	=64	=64	=64
.	.	.	.	.	.	1DM	D:maj (D F# A)	.	.	voice, choir
8BB	may	.	.	.	.	.	.	.	.	.
=65	=65	=65	=65	=65	=65	=65	=65	=65	=65	=65
2C#	all	1r	.	1r	.	.	.	.	.	.
4r	.	.	.	.	.	.	.	.	.	.
=65	=65	=65	=65	=65	=65	=65	=65	=65	=65	=65
8r	.	.	.	.	.	1Dm	D:min6(7) (D F A B C#)	.	.	voice, choir
8C#	your	.	.	.	.	.	.	.	.	.
=66	=66	=66	=66	=66	=66	=66	=66	=66	=66	=66
4.F#	Christ-	1r	.	1r	.	.	.	.	.	.
8GG#	-ma-	.	.	.	.	.	.	.	.	.
4.GG#	-ses	.	.	.	.	.	.	.	.	.
=66	=66	=66	=66	=66	=66	=66	=66	=66	=66	=66
.	.	.	.	.	.	1AM	A:maj (A C# E)	newline	161.178	voice
8GG#	be	.	.	.	.	.	.	.	.	.
=67	=67	=67	=67	=67	=67	=67	=67	=67	=67	=67
[1AA	white.	1r	.	1r	.	.	.	.	.	.
=67	=67	=67	=67	=67	=67	=67	=67	=67	=67	=67
.	.	.	.	.	.	1EMm	E:7 (E G# B D)	.	.	voice
=68	=68	=68	=68	=68	=68	=68	=68	=68	=68	=68
1AA]	_	1r	.	1r	.	.	.	.	.	.
=68	=68	=68	=68	=68	=68	=68	=68	=68	=68	=68
.	.	.	.	.	.	1AM	A:maj6 (A C# E F#)	.	.	voice
=69	=69	=69	=69	=69	=69	=69	=69	=69	=69	=69
1r	.	1r	.	1r	.	.	.	.	.	.
.	.	.	.	.	.	1r;	r	.	179.676	r
=70	=70	=70	=70	=70	=70	=70	=70	=70	=70	=70
1r	.	1r	.	1r	.	.	.	.	.	.
.	.	.	.	.	.	1r;	r	.	181.979	r
*-	*-	*-	*-	*-	*-	*	*	*	*	*	*
.	.	.	.	.
*-	*-	*-	*-	*-
!!!BillboardChartDate: 1962/12/29
!!!BillboardPeak: 12
!!!BillboardWeeksOnChart: 13
!!!COC: Bing Crosby
!!!ENC: Nathaniel Condit-Schultz
!!!EST: Awating manual error checking and editing.
!!!OTL: White Christmas
!!!RDF**chordsym: original McGill chord annotation + (implied pitch class set, with bass pitch in first position)
!!!RDF**harmony: **recip + pitch class of root + harmonic quality
!!!RDF**leadinstrument: original McGill primary instrumentation annotation
!!!RDF**phrase: newline = linebreak in original McGill transcription
!!!RDF**timestamp: McGill audio timestamp in seconds
!!!RDT: 2017/01/12/
!!!SampleActualRank: 38
!!!SampleID#: 0241
!!!SampleTargetRank: 40
